X: 38283
T: St. Kilda Wedding
R: reel
M: 4/4
K: Gmajor
G2GB GBdB|A2BG E2DE|G2BA GBdB|1 e2ed edeg:|2 e2ed edef||
g2ga gddg|efgf e2dc|Bdef gfeg|dBgB A2BA|
Gggf gddg|efgf e2dc|Bdef gfeg|dBgB A2BA||

